X: 100269
M: C|
L: 1/8
K: G
uD2 !segno!|\
|: (uef)!segno!|\
{a}g2(dg) Bgdg | gabg agef | g2(dg) Bgdg | cBAG FADF |
{a}g2(dg) Bgdg | gabg agef | gfga gfed | egfa gedB !segno!"_D.C.":|


